!!!OTL: Verschlafener Jaeger Es ging ein Herr spazieren,
!!!ARE: Europa, Suedosteuropa, Jugoslavija, Batschka, Vinkovci, Neudorf
!!!YOR: 7, S. 220
!!    1938 aufgezeichnet
!!!SCT: Q0152T
!!!YEM: Copyright 1995, estate of Helmut Schaffrath.
**kern
*ICvox
*Ivox
*M4/4
*k[f#]
*G:
{8g
8b
=1
4b
4b
4dd
4b
=2
4.a
8b
4cc}
{8a
8b
=3
4cc
4cc
4ee
4cc
=4
4.b
8cc
4dd}
{4g
=5
4.ee
8ff#
4gg
4ee
=6
4.dd
8cc
4b}
{4dd
=7
4dd
8ee
8dd
4cc
8dd
8cc
=8
8b
8a
8b
8cc
4dd}
{8g
8b
=9
4b
4b
4dd
4b
=10
4.a
8b
4cc}
{8a
8b
=11
4cc
4cc
4ee
4cc
=12
4.b
8cc
4dd}
{4g
=13
4.ee
8ff#
4gg
4ee
=14
4.dd
8cc
4b}
{4dd
=15
4dd
8ee
8dd
4cc
8dd
8cc
=16
2b
4r}
==
!!!AGN: Ballade, Verfuehrung, verlorene Ehre
!! Zugehoerigkeit zu dieser Balladengruppe ungeklaert.
!!!ONB: ESAC (Essen Associative Code) Database: BALLADE
!!!AMT: simple quadruple
!!!AIN: vox
!!!EED: Helmut Schaffrath
!!!EEV: 1.0
*-
